icons/soccer-15.svg

<?xml version="1.0" encoding="utf-8"?>
<!-- Generator: Adobe Illustrator 19.2.1, SVG Export Plug-In . SVG Version: 6.00 Build 0)  -->
<!DOCTYPE svg PUBLIC "-//W3C//DTD SVG 1.1//EN" "http://www.w3.org/Graphics/SVG/1.1/DTD/svg11.dtd">
<svg version="1.1" id="Layer_1" xmlns="http://www.w3.org/2000/svg" xmlns:xlink="http://www.w3.org/1999/xlink" x="0px" y="0px"
	 width="15px" height="15px" viewBox="0 0 15 15" style="enable-background:new 0 0 15 15;" xml:space="preserve">
<path d="M11,1.5C11,2.3284,10.3284,3,9.5,3S8,2.3284,8,1.5S8.6716,0,9.5,0S11,0.6716,11,1.5z M11,11c-0.5523,0-1,0.4477-1,1
	s0.4477,1,1,1s1-0.4477,1-1S11.5523,11,11,11z M12.84,6.09l-1.91-1.91l0,0C10.8399,4.0675,10.7041,4.0014,10.56,4H3.5
	C3.2239,4,3,4.2239,3,4.5S3.2239,5,3.5,5h2.7L3,11.3l0,0c-0.0138,0.066-0.0138,0.134,0,0.2c-0.058,0.2761,0.1189,0.547,0.395,0.605
	C3.6711,12.163,3.942,11.9861,4,11.71l0,0L5,10h2l-1.93,4.24l0,0C5.0228,14.3184,4.9986,14.4085,5,14.5
	c-0.0552,0.2761,0.1239,0.5448,0.4,0.6c0.2761,0.0552,0.5448-0.1239,0.6-0.4l0,0l4.7-9.38l1.44,1.48
	c0.211,0.1782,0.5264,0.1516,0.7046-0.0593C13.0037,6.5523,13.0018,6.2761,12.84,6.09z"/>
</svg>

<svg id="Layer_1" data-name="Layer 1" xmlns="http://www.w3.org/2000/svg" width="15" height="15" viewBox="0 0 15 15">
  <title>soccer-15</title>
  <path d="M11,1.5A1.5,1.5,0,1,1,9.5,0,1.5,1.5,0,0,1,11,1.5ZM11,11a1,1,0,1,0,1,1A1,1,0,0,0,11,11Zm1.84-4.91L10.93,4.18h0A0.48,0.48,0,0,0,10.56,4H3.5a0.5,0.5,0,0,0,0,1H6.2L3,11.3H3a0.49,0.49,0,0,0,0,.2,0.5,0.5,0,0,0,1,.21H4L5,10H7L5.07,14.24h0A0.49,0.49,0,0,0,5,14.5a0.5,0.5,0,0,0,1,.2H6l4.7-9.38L12.14,6.8A0.5,0.5,0,0,0,12.84,6.09Z"/>
</svg>
